lastfm.svg

<svg height="12.28" viewBox="0 0 22 12.28" width="22" xmlns="http://www.w3.org/2000/svg"><path d="m16.79 12.26q-5.31 0-6.71-4.44l-.8-2.52a7.57 7.57 0 0 0 -1.16-2.45 2.66 2.66 0 0 0 -2.12-.77 3.57 3.57 0 0 0 -2.48 1 4.12 4.12 0 0 0 -1.1 3.17 4 4 0 0 0 1 2.84 3.16 3.16 0 0 0 2.39 1.09 3.94 3.94 0 0 0 2.87-1.18l.78 2.18a5.7 5.7 0 0 1 -3.74 1.13 5.66 5.66 0 0 1 -5.72-5.95 6.21 6.21 0 0 1 1.78-4.62 5.69 5.69 0 0 1 4.12-1.74 5.6 5.6 0 0 1 3.7 1 7.34 7.34 0 0 1 2 3.53l.89 2.52a4.21 4.21 0 0 0 4.35 3.22c1.79 0 2.71-.48 2.71-1.39 0-.74-.58-1.27-1.74-1.57l-1.81-.31c-1.92-.46-2.87-1.57-2.87-3.32q.01-3.68 4.45-3.68c2.71 0 4.19 1.07 4.35 3.22l-2.52.29c-.07-1-.72-1.48-2-1.48s-1.74.44-1.74 1.3.46 1.25 1.39 1.48l1.64.33c2.21.53 3.3 1.75 3.3 3.67 0 2.29-1.73 3.45-5.21 3.45z"/></svg>

<svg xmlns="http://www.w3.org/2000/svg" width="22" height="12.28" viewBox="0 0 22 12.28"><title>lastfm</title><path d="M16.79,12.26q-5.31,0-6.71-4.44L9.28,5.3A7.57,7.57,0,0,0,8.12,2.85,2.66,2.66,0,0,0,6,2.08a3.57,3.57,0,0,0-2.48,1,4.12,4.12,0,0,0-1.1,3.17,4,4,0,0,0,1,2.84,3.16,3.16,0,0,0,2.39,1.09A3.94,3.94,0,0,0,8.68,9l.78,2.18a5.7,5.7,0,0,1-3.74,1.13A5.66,5.66,0,0,1,0,6.36,6.21,6.21,0,0,1,1.78,1.74,5.69,5.69,0,0,1,5.9,0,5.6,5.6,0,0,1,9.6,1a7.34,7.34,0,0,1,2,3.53l.89,2.52a4.21,4.21,0,0,0,4.35,3.22c1.79,0,2.71-.48,2.71-1.39,0-.74-.58-1.27-1.74-1.57L16,7c-1.92-.46-2.87-1.57-2.87-3.32Q13.14,0,17.58,0c2.71,0,4.19,1.07,4.35,3.22l-2.52.29c-.07-1-.72-1.48-2-1.48s-1.74.44-1.74,1.3.46,1.25,1.39,1.48l1.64.33C20.91,5.67,22,6.89,22,8.81,22,11.1,20.27,12.26,16.79,12.26Z"/></svg>
